icons/outline/scissors.svg

<svg width="24" height="24" viewBox="0 0 24 24" fill="none" xmlns="http://www.w3.org/2000/svg">
<path d="M7.84786 8.25007L9.38443 9.13721M7.84786 8.25007C7.01943 9.68494 5.18501 10.1765 3.75013 9.34809C2.31526 8.51966 1.82363 6.68489 2.65206 5.25001C3.48049 3.81513 5.31526 3.32351 6.75013 4.15194C8.18501 4.98036 8.67629 6.81519 7.84786 8.25007ZM9.38443 9.13721C10.043 9.51742 10.4538 10.2153 10.4666 10.9756C10.4725 11.3272 10.5207 11.6706 10.607 12.0001M9.38443 9.13721L11.4608 10.336M7.84786 15.7501L9.38443 14.863M7.84786 15.7501C8.67629 17.185 8.18501 19.0197 6.75013 19.8481C5.31526 20.6765 3.48049 20.1849 2.65206 18.75C1.82363 17.3151 2.31526 15.4804 3.75013 14.6519C5.18501 13.8235 7.01943 14.3153 7.84786 15.7501ZM9.38443 14.863C10.043 14.4828 10.4538 13.7849 10.4666 13.0246C10.4725 12.673 10.5207 12.3296 10.607 12.0001M9.38443 14.863L11.4608 13.6642M11.4608 10.336C11.9882 9.699 12.6991 9.21096 13.5294 8.95702L18.8541 7.32855C19.6606 7.08189 20.5202 7.06684 21.3348 7.28513L22.1373 7.50014L14.3431 12.0001M11.4608 10.336C11.062 10.8178 10.7681 11.3848 10.607 12.0001M14.3431 12.0001L22.1373 16.5001L21.3348 16.7151C20.5202 16.9334 19.6606 16.9183 18.8541 16.6717L13.5294 15.0432C12.6991 14.7892 11.9882 14.3012 11.4608 13.6642M14.3431 12.0001L11.4608 13.6642" stroke="#0F172A" stroke-width="1.5" stroke-linecap="round" stroke-linejoin="round"/>
</svg>

<svg xmlns="http://www.w3.org/2000/svg" fill="none" viewBox="0 0 24 24" stroke-width="1.5" stroke="currentColor" aria-hidden="true">
  <path stroke-linecap="round" stroke-linejoin="round" d="M7.848 8.25l1.536.887M7.848 8.25a3 3 0 11-5.196-3 3 3 0 015.196 3zm1.536.887a2.165 2.165 0 011.083 1.839c.005.351.054.695.14 1.024M9.384 9.137l2.077 1.199M7.848 15.75l1.536-.887m-1.536.887a3 3 0 11-5.196 3 3 3 0 015.196-3zm1.536-.887a2.165 2.165 0 001.083-1.838c.005-.352.054-.695.14-1.025m-1.223 2.863l2.077-1.199m0-3.328a4.323 4.323 0 012.068-1.379l5.325-1.628a4.5 4.5 0 012.48-.044l.803.215-7.794 4.5m-2.882-1.664A4.331 4.331 0 0010.607 12m3.736 0l7.794 4.5-.802.215a4.5 4.5 0 01-2.48-.043l-5.326-1.629a4.324 4.324 0 01-2.068-1.379M14.343 12l-2.882 1.664"/>
</svg>
